!!!OTL: Abschied
!!!ARE: Europa, Mitteleuropa, Deutschland
!!!SCT: A0258
!!!YEM: Copyright 1995, estate of Helmut Schaffrath.
**kern
*ICvox
*Ivox
*M4/2
*k[]
*C:
=1
{1c
1c
=2
2B
1c
2d
=3
1B
1G}
=4
{1d
1e
=5
2d
1c
4B
4A
=6
2B
2c
1A
=7
1G
1r}
=8
{1c
1c
=9
2B
1c
2d
=10
1B
1G}
=11
{1d
1e
=12
2d
1c
4B
4A
=13
2B
2c
1A
=14
1G
2r}
{2g
=15
2f
2e
1d
=16
2c
1f
4e
4d
=17
1e
2d}
{2d
=18
1g
2f
2e
=19
4f
4d
1d
2c
=20
1d
2r}
{2G
=21
2c
2d
2e
2f
=22
1g
1d}
=23
{1f
1e
=24
2d
1g
4f
4e
=25
4f
4e
4d
4c
2d
2d
=26
0c}
==
!!!AGN: Romanze, Ballade, Lied
!! Forster I 1539 No. 61.
!!!ONB: ESAC (Essen Associative Code) Database: ALTDEU
!!!AMT: simple quadruple
!!!AIN: vox
!!!EED: Helmut Schaffrath
!!!EEV: 1.0
*-
